X: 20658
T: John Sweeney's
R: polka
M: 2/4
K: Amajor
|:A>B AF|EF AB|c2 cB|AF FE|
A>B AF|EF AB|ce ec|BA A2:|
|:ce fe|ec BA|ce fe|ec B2|
ce fe|ec BA|c2 c>B|AF FE:|

